!!!COM: Vivaldi, Antonio Lucio
!!!CDT: 1678/03/04-1741/08/28
!!!OPR: 12 Sonatas for Violin and Basso continuo
!!!OTL: Sonata in B minor, op. @{OPS}, no. @{ONM} (@{SCT})
!!!OPS: 2
!!!ONM: 5
!!!OMV: 2. Corrente
!!!SCT: RV 36
!!!SCA: Antonio Vivaldi: Thematisch-systematisches Verzeichnis seiner Werke (Ryom-Verzeichnis)
!!!OMD: Allegro
!!!key: b
**kern	**fb	**kern
*part2	*	*part1
*staff2	*	*staff1
*ICklav	*	*ICstr
*Icemba	*	*Ivioln
*I"Basso continuo	*	*I"Violino
*I'bc	*	*I'v
*>[A,A1,A,A2,B,B1,B,B2]	*>[A,A1,A,A2,B,B1,B,B2]	*>[A,A1,A,A2,B,B1,B,B2]
*>norep[A,A2,B,B2]	*>norep[A,A2,B,B2]	*>norep[A,A2,B,B2]
*>A	*>A	*>A
*clefF4	*	*clefG2
*k[f#c#]	*	*k[f#c#]
*b:	*	*b:
*M3/4	*	*M3/4
*MM140	*	*MM140
=1	=1	=1
4BB/	.	8r
.	.	8b\
4B\	.	(8dd\L
.	.	8b\)
4A#X\	6	(8cc#y\
.	.	8ff#y\J)
=2	=2	=2
4B\	.	(8dd\L
.	.	8b\)
4BB/	.	(8dd\
.	.	8b\)
4AA#X/	6	(8cc#y\
.	.	8ff#y\J)
=3	=3	=3
2BB/	.	(8dd\L
.	.	8b\)
.	.	(8ff#y\
.	.	8b\)
4D\	6	(8bb\
.	.	8b\J)
=4	=4	=4
2.E\	.	(8gg\L
.	.	8ff#y\
.	.	8ee\
.	.	8dd\
.	.	8cc#y\
.	.	8b\J)
=5	=5	=5
4.F#y\	#	(8a#X/L
.	.	8g#X/J)
.	.	4f#y/
8E\	.	.
4D\	6	8r
.	.	8ff#y\
=6	=6	=6
2E\	.	(8gg\L
.	.	8ee\
.	.	8b\
.	.	8ee\J)
4D\	4#| 2	4gg#X\
!!LO:PB:g=original
=7	=7	=7
2C#y/	6	(8aa\L
.	.	8ee\
.	.	8cc#y\
.	.	8ee\J)
4F#y\	#	4aa#X\
=8	=8	=8
4D\	6	(8bb\L
.	.	8ff#y\)
2E\	5	(8gg\
.	.	8ee\)
.	6nr	(8cccn\
.	.	8bb\J)
=9	=9	=9
4.F#y\	#	4.aa#X\
8E\	.	8ff#y\
4D\	6	8bb\L
.	.	8ff#y\J
=10	=10	=10
4E\	7 5	8ee\L
.	.	8dd\J
4F#y\	5 4	4.cc#y\t
4FF#y/	#	.
.	.	8b\
=11	=11	=11
4BB/	.	16b\LL
.	.	16ff#y\
.	.	16cc#y\
.	.	16ff#y\JJ
8r	.	16dd\LL
.	.	16ff#y\
8F#y\	.	16cc#y\
.	.	16ff#y\JJ
8B\L	.	16dd\LL
.	.	16ff#y\
8A#X\J	.	16cc#y\
.	.	16ff#y\JJ
=12	=12	=12
8B\L	.	16dd\LL
.	.	16bb\
8BB\J	.	16ff#y\
.	.	16bb\JJ
8r	.	16gg\LL
.	.	16bb\
8B\	.	16ff#y\
.	.	16bb\JJ
8e\L	.	16gg\LL
.	.	16bb\
8d#X\J	.	16ff#y\
.	.	16bb\JJ
!!LO:LB:g=original
=13	=13	=13
8e\L	.	16gg\LL
.	.	16ee\
8E\J	.	16b\
.	.	16ee\JJ
8r	.	16cc#y\LL
.	.	16ee\
8E\	.	16b\
.	.	16ee\JJ
8A\L	.	16cc#y\LL
.	.	16ee\
8G#X\J	.	16b\
.	.	16ee\JJ
=14	=14	=14
8A\L	.	16cc#y\LL
.	.	16aa\
8AA\J	.	16ee\
.	.	16aa\JJ
8r	.	16ff#y\LL
.	.	16aa\
8A\	.	16ee\
.	.	16aa\JJ
8d\L	.	16ff#y\LL
.	.	16aa\
8c#y\J	.	16ee\
.	.	16aa\JJ
=15	=15	=15
8d\L	.	16ff#y\LL
.	.	16dd\
8D\J	.	16a\
.	.	16dd\JJ
8r	.	16b\LL
.	.	16dd\
8D\	.	16a\
.	.	16dd\JJ
8G\L	.	16b\LL
.	.	16dd\
8F#y\J	.	16a\
.	.	16dd\JJ
=16	=16	=16
4G\	.	(8b\L
.	.	8g\
4GG/	.	8b\
.	.	8dd\
4BB/	.	8gg\
.	.	8bb\J)
=17	=17	=17
4AA/	.	(8cc#y\L
.	.	8a\
4A\	.	8cc#y\
.	.	8ee\
4c#y\	.	8aa\
.	.	8ee\J)
=18	=18	=18
4d\	.	(8ff#y/L
.	.	8d/
4D\	.	8f#y/
.	.	8a/
4F#y\	.	8dd/
.	.	8a/J)
!!LO:LB:g=original
=19	=19	=19
4G\	.	(8b\L
.	.	8g\
4GG/	.	8b\
.	.	8dd\
4B\	.	8gg\
.	.	8bb\J)
=20	=20	=20
4.A\	.	4.cc#y\t
8G\	.	8a/
4F#y\	6	8dd/L
.	.	8f#y/J
=21	=21	=21
4G\	6 5	8e/L
.	.	8d/
4A\	5 4	(8A/
.	.	8e/
4AA/	3	8dd/)
.	.	8cc#y/J
=22	=22	=22
4D\	.	8dd/L
.	.	(8d/
8r	.	8f#y/
8d\	.	8a/J)
8D\L	.	4ccn\
8d\J	.	.
=23	=23	=23
8G/L	.	8b\L
8GG/J	.	(8g\
8r	.	8b\
8G\	.	8dd\J)
8GG/L	.	4gg\
8G/J	.	.
=24	=24	=24
4.A\	.	4.cc#y\t
8G\	.	8a/
4F#y\	6	8dd/L
.	.	8f#y/J
=25	=25	=25
4G\	6 5	8e/L
.	.	8d/
4A\	5 4	(8A/
.	.	8e/
4AA/	3	8dd/)
.	.	8cc#y/J
=26	=26	=26
*>A1	*>A1	*>A1
2.D\	.	2.dd\
!!LO:LB:g=original
=26:|!	=26:|!	=26:|!
*>A2	*>A2	*>A2
[2D\	.	[2dd\
8D\]	.	8dd\]
8r	.	8dd\
=27!|:	=27!|:	=27!|:
*>B	*>B	*>B
2F#y\	6	(8dd\L
.	.	8ff#y\)
.	.	8aa\
.	.	8aa\
4A\	4#| 3nr	8cccn\
.	.	8dd#X\J
=28	=28	=28
2BB/	#	[4dd#X\t
.	.	16dd#y\LL]
.	.	16b\
.	.	16cc#X\
.	.	16dd#X\JJ
4r	.	16ee\LL
.	.	16ff#y\
.	.	16gg\
.	.	16aa\JJ
=29	=29	=29
4BB/	#	8bb\L
.	.	8b\J
4D#X\	5	4.aa\T
4BB/	7 #	.
.	.	16gg\LL
.	.	16ff#y\JJ
=30	=30	=30
2.E\	.	8gg\L
.	.	8b\
.	.	(8b\
.	.	8ee\)
.	.	(8ee\
.	.	8gg#X\J)
=31	=31	=31
2.BB/	6#/	(8gg#y\L
.	.	8bb\)
.	.	(8bb\
.	.	8ddd\)
.	.	(8ddd\
.	.	8ee#X\J)
=32	=32	=32
2.C#y/	#	4.ee#X\t
.	.	8cc#y\
.	.	(8cc#y\L
.	.	8dd\J)
!!LO:LB:g=original
=33	=33	=33
2.E#X\	7 5	(8dd/L
.	.	8b/)
.	.	(8g#X/
.	.	8b/)
.	.	(8e#X/
.	.	8b/J)
=34	=34	=34
2F#y\	.	(8a\L
.	.	8g#X\)
.	.	8f#y\
.	.	8ff#y\
4AA/	6	8cc#y\
.	.	8ff#y\J
=35	=35	=35
2BB/	.	(8dd\L
.	.	8b\)
.	.	(8dd\
.	.	8ggn\)
4B\	6	(8gg\
.	.	8bb\J)
=36	=36	=36
4c#y\	#	(8ee#y\L
.	.	8cc#y\)
4A\	6	(8ff#y\
.	.	8cc#y\)
4F#y\	.	(8a\
.	.	8cc#y\J)
=37	=37	=37
4B\	7 5	(8b/L
.	.	8a/
4c#y\	#	8g#X/
.	.	8f#y/)
4C#y/	.	(8c#y/
.	.	8e#X/J)
=38	=38	=38
4F#y\	.	16f#y/LL
.	.	16cc#y/
.	.	16g#X/
.	.	16cc#y/JJ
8r	.	16a/LL
.	.	16cc#y/
8C#y/	.	16g#X/
.	.	16cc#y/JJ
8F#y\L	.	16a/LL
.	.	16cc#y/
8E#y\J	.	16g#X/
.	.	16cc#y/JJ
!!LO:LB:g=original
=39	=39	=39
8F#y/L	.	16a\LL
.	.	16ff#y\
8FF#y/J	.	16cc#y\
.	.	16ff#y\JJ
8r	.	16dd\LL
.	.	16ff#y\
8F#y\	.	16cc#y\
.	.	16ff#y\JJ
8B\L	.	16dd\LL
.	.	16ff#y\
8A#y\J	.	16cc#y\
.	.	16ff#y\JJ
=40	=40	=40
8B\L	.	16dd\LL
.	.	16bb\
8BB\J	.	16ff#y\
.	.	16bb\JJ
8r	.	16gg\LL
.	.	16bb\
8B\	.	16ff#y\
.	.	16bb\JJ
8e\L	.	16gg\LL
.	.	16bb\
8d#X\J	.	16ff#y\
.	.	16bb\JJ
=41	=41	=41
8e\L	.	16gg\LL
.	.	16ee\
8E\J	.	16b\
.	.	16ee\JJ
8r	.	16cc#y\LL
.	.	16ee\
8E\	.	16b\
.	.	16ee\JJ
8A\L	.	16cc#y\LL
.	.	16ee\
8G#X\J	.	16b\
.	.	16ee\JJ
=42	=42	=42
8A\L	.	16cc#y\LL
.	.	16aa\
8AA\J	.	16ee\
.	.	16aa\JJ
8r	.	16ff#y\LL
.	.	16aa\
8A\	.	16ee\
.	.	16aa\JJ
8d\L	.	16ff#y\LL
.	.	16aa\
8c#y\J	.	16ee\
.	.	16aa\JJ
=43	=43	=43
8d\L	.	16ff#y\LL
.	.	16dd\
8D\J	.	16a\
.	.	16dd\JJ
8r	.	16b\LL
.	.	16dd\
8D\	.	16a\
.	.	16dd\JJ
8G\L	.	16b\LL
.	.	16dd\
8F#y\J	.	16a\
.	.	16dd\JJ
!!LO:LB:g=original
=44	=44	=44
8G/L	.	(8b\L
8GG/J	.	8g\
8r	.	8b\
8G\	.	8ee\
8E\L	.	8gg\
8G\J	.	8ee\J)
=45	=45	=45
8F#y/L	#	(8a#X\L
8FF#y/J	.	8f#y\
8r	.	8a#X\
8F#y\	.	8cc#y\
8A#X\L	.	8ff#y\
8F#y\J	.	8cc#y\J)
=46	=46	=46
8B\L	.	(8dd\L
8BB\J	.	8b\
8r	.	8dd\
8BB/	#	8ff#y\
8D#y/L	.	8bb\
8BB/J	.	8ff#y\J)
=47	=47	=47
2E\	.	(8gg\L
.	.	8ee\
.	.	8b\
.	.	8ee\J)
4D\	4#| 2	4gg#X\
=48	=48	=48
2C#y/	6	(8aa\L
.	.	8ee\
.	.	8cc#y\
.	.	8ee\J)
4F#y\	#	4aa#X\
=49	=49	=49
4D\	6	(8bb\L
.	.	8ff#y\)
2E\	5	(8gg\
.	.	8ee\)
.	6nr	(8cccn\
.	.	8bb\J)
=50	=50	=50
4.F#y\	#	4.aa#X\
8E\	.	8ff#y\
4D\	6	8bb\L
.	.	8ff#y\J
=51	=51	=51
4E\	7 5	8ee\L
.	.	8dd\J
4F#y\	5 4	4.cc#y\t
4FF#y/	#	.
.	.	8b\
!!LO:LB:g=original
=52	=52	=52
4BB/	.	8b\L
.	.	(16dd\L
.	.	16cc#y\JJ
4r	.	16b\LL
.	.	16cc#y\
.	.	16dd\
.	.	16b\JJ)
4BB/	.	(8d/L
.	.	8b/J)
=53	=53	=53
4C#y/	6	8e/L
.	.	(16dd/L
.	.	16cc#y/JJ
4r	.	16b\LL
.	.	16cc#y\
.	.	16dd\
.	.	16b\JJ)
4C#y/	.	(8e/L
.	.	8b/J)
=54	=54	=54
4D\	.	8f#y/L
.	.	(16dd/L
.	.	16cc#y/JJ
4r	.	16b\LL
.	.	16cc#y\
.	.	16dd\
.	.	16b\JJ)
4D\	.	(8f#y/L
.	.	8b/J)
=55	=55	=55
4E\	.	(8g/L
.	.	8e/
4r	.	8g/
.	.	8b/
4E\	6nr	8ccn/
.	.	8ee/J)
=56	=56	=56
4.F#y\	#	4.aa#X\
8E\	.	8ff#y\
4D\	6	8bb\L
.	.	8ff#y\J
=57	=57	=57
4E\	7 5	8ee\L
.	.	8dd\J
4F#y\	5 4	4.cc#y\t
4FF#y/	#	.
.	.	8b\
=58	=58	=58
*>B1	*>B1	*>B1
[2BB/	.	[2b\
8BB/]	.	8b\]
8r	.	8b\
=58:|!	=58:|!	=58:|!
*>B2	*>B2	*>B2
2.BB/;	.	2.b\;
==	==	==
*-	*-	*-
!!!SMS: RV 36 / Estienne Roger, Amsterdam [facs.]
!!!ENC: Fran Bennion; rev. 04/21 E. Correia
!!!END: 2004/11/27
!!!ONB: Converted from MuseData with musedata2hum on Sat May 11 12:07:52 2024
!!!YEM: (C) 2004, 2004 Center for Computer Assisted Research in the Humanities.
!!!system-decoration: [(s1,s2)]
!!!URL-info: https://wiki.ccarh.org/wiki/MuseData:_Antonio_Vivaldi#Op._2:_Sonate_a_violino_e_basso_per_il_cembalo
!!!URL-pdf: https://pdf.musedata.org/vivaldi-op02-no05.pdf#page=1 MuseData edition
!!!URL-pdf: http://conquest.imslp.info/files/imglnks/usimg/b/b7/IMSLP99075-PMLP183164-Vivaldi_-_Sonatas_Op2.pdf#page=18 Estienne Roger Amsterdam: Estienne Roger, No.2, n.d.[1711].
!!!URL-youtube: https://www.youtube.com/watch?v=SiijZmW9jKM&t=5284s L'Arte dell'Arco
!!!title: @{OTL}, mov. @{OMV}
!!!filter-chint: chint -mid
!!!EEV: 2024/05/11
!!!source-file: https://bitbucket.org/musedata/vivaldi/src/master/roger/op2/no05/stage2/02/01
!!!source-file: https://bitbucket.org/musedata/vivaldi/src/master/roger/op2/no05/stage2/02/02
